src/mic-c.svg

<?xml version="1.0" encoding="utf-8"?>
<!-- Generated by IcoMoon.io -->
<!DOCTYPE svg PUBLIC "-//W3C//DTD SVG 1.1//EN" "http://www.w3.org/Graphics/SVG/1.1/DTD/svg11.dtd">
<svg version="1.1" xmlns="http://www.w3.org/2000/svg" xmlns:xlink="http://www.w3.org/1999/xlink" width="512" height="512" viewBox="0 0 512 512">
<path fill="#000000" d="M329.2 32h-146.3c-30.4 0-54.9 23.4-54.9 52.4v27.6h152v37h-152v43h152v37h-152v43h152v37h-152v41.8c0 29 24.5 52.2 54.9 52.2h30.1v77h86v-77h30.2c30.3 0 54.8-23.2 54.8-52.2v-41.8h-59v-37h59v-43h-59v-37h59v-43h-59v-37h59v-27.6c0-29-24.5-52.4-54.8-52.4z"></path>
</svg>

<?xml version="1.0" encoding="utf-8"?>
<!-- Generator: Adobe Illustrator 16.2.1, SVG Export Plug-In . SVG Version: 6.00 Build 0)  -->
<!DOCTYPE svg PUBLIC "-//W3C//DTD SVG 1.1//EN" "http://www.w3.org/Graphics/SVG/1.1/DTD/svg11.dtd">
<svg version="1.1" id="Layer_1" xmlns="http://www.w3.org/2000/svg" xmlns:xlink="http://www.w3.org/1999/xlink" x="0px" y="0px"
	 width="512px" height="512px" viewBox="0 0 512 512" style="enable-background:new 0 0 512 512;" xml:space="preserve">
<path d="M329.2,32H182.9C152.5,32,128,55.4,128,84.4V112h152v37H128v43h152v37H128v43h152v37H128v41.8c0,29,24.5,52.2,54.9,52.2H213
	v77h86v-77h30.2c30.3,0,54.8-23.2,54.8-52.2V309h-59v-37h59v-43h-59v-37h59v-43h-59v-37h59V84.4C384,55.4,359.5,32,329.2,32z"/>
</svg>
